X:1
T:Will You Be There, and I?
T:Will You Be There, and I?
T:Margaret Chalmers Hood Wilson
T:Margaret Chalmers Hood Wilson, 1865
T:Public Domain Courtesy of the Cyber Hymnal™
C:Margaret Chalmers Hood Wilson
Z:Public Domain
Z:Courtesy of the Cyber Hymnal™
%%score ( 1 2 ) ( 3 4 )
L:1/8
Q:1/4=97
M:4/4
K:D
V:1 treble 
V:2 treble 
V:3 bass 
V:4 bass 
V:1
 ([FA][FA]) | [Fd]2 ([Ec][Fd]) [Ae]2 ([Fd][GB]) | [FA]2 [EG]2 [DF]3 [DF] | %3
w: 1.~We *|know there’s~a * bright and~a *|glor- ious home, A-|
w: 2.~In *|robes of * white, over *|streets of gold, Be-|
w: 3.~From *|ev- ery * king- dom~of *|earth they come, To|
w: 4.~If~we *|take the * lov- ing *|Sav- ior now, And|
 [CE]2 ([DF][EG]) [DF]2 [CE]2 | [DF]4 z2 ([FA][FA]) | [Fd]2 [Gc][Fd] [Ge]2 ([Ge][Fd]) | %6
w: way in~the * hea- vens|high, Where *|all the re- deemed shall~with *|
w: neath a * cloud- less|sky, They *|walk in the light of~their *|
w: join the~tri- * umph- al|cry Of *|“Wor- thy the Lamb that *|
w: fol- low~Him * faith- ful-|ly, When~He *|ga- thers His child- ren~in *|
 [Ec]2 [DB]2 [CA]2 [DA]2 | [DB]3 [DA] [DB]2 [Gc]2 | [Fd]4 z2 [GA]2 | [Fd]2 ([DF][EG]) [DF]2 [CE]2 | %10
w: Je- sus dwell; Will|you be there, and|I? Will|you be * there, and|
w: Fa- ther’s love; Will|you be there, and|I? Will|you be * there, and|
w: once was slain!” Will|you be there, and|I? Will|you be * there, and|
w: that bright home, Then|you’ll be there, and|I! Then|you’ll be * there, and|
 D4 z2 |] %11
w: I?|
w: I?|
w: I?|
w: I!|
V:2
 x2 | x8 | x8 | x8 | x8 | x8 | x8 | x8 | x8 | x8 | D4 x2 |] %11
V:3
 ([D,A,][D,A,]) | [D,A,]2 ([D,A,][D,A,]) [C,A,]2 ([D,A,][G,,D]) | [G,,D]2 [A,,C]2 [D,D]3 [D,A,] | %3
 [A,,A,]2 ([A,,A,][A,,A,]) [A,,A,]2 [A,,A,]2 | [D,A,]4 z2 ([D,A,][D,A,]) | %5
 [B,,B,]2 [E,A,][D,A,] [C,A,]2 ([D,A,][D,A,]) | [E,A,]2 [E,^G,]2 [A,,A,]2 [D,F,]2 | %7
 G,3 [F,A,] G,2 [E,G,]2 | [D,A,]4 z2 [C,A,]2 | [D,A,]2 ([D,A,][G,B,]) A,2 [A,,G,]2 | [D,F,]4 z2 |] %11
V:4
 x2 | x8 | x8 | x8 | x8 | x8 | x8 | G,3 G,2 x3 | x8 | x4 A,2 x2 | x6 |] %11

